X: 25695
T: Martina's
R: polka
M: 2/4
K: Dmajor
AF A2|BG B2|cA cd|d>e f/e/d/B/|
AF A2|BG B2|cA ce|ed d2:|
f2 ff|dc BA|f2 {f} ef|ge ef|
gf ed|cB cA|a2 ac|ed d2:|

